X:446
T:Within This Village Dwells a Maid
N:"Slow" "No. 1"
N:Irish title: annsa .baile seo co.mnai.deann aindear
B:O'Neill's 446
Z:Transcribed by henrik.norbeck@mailbox.swipnet.se
M:3/4
L:1/8
K:G
Bc|d2 g2 ga|b2 d2 Bc|d2 de dc|B2 G2 Bc|
d2 g2 ga|b2 d2 "#"~d2|e2 eg fe|d4||
Bc|d2 d2 df|g2 dg/a/ bg|d2 Bc dc|B2 G2 Bc|
cd2 b2 a2|ga b2 d2|Bd cB AB|G4||
